src/icons/outline/symbols/library.svg

<svg width="24" height="24" viewBox="0 0 24 24" fill="none" xmlns="http://www.w3.org/2000/svg">
<g clip-path="url(#clip0_4704_418)">
<path fill-rule="evenodd" clip-rule="evenodd" d="M7.23438 1C7.65346 1.00002 8.16962 1.13389 8.58887 1.45215C8.91779 1.18096 9.3661 1.00009 9.95703 1H12.6904C13.5334 1 14.7699 1.541 14.8184 3.03711C15.118 2.76762 15.5105 2.59184 15.9766 2.52441L17.3281 2.33008C17.41 2.31985 17.8709 2.2689 18.3828 2.43262C19.1403 2.68839 19.6212 3.292 19.7441 4.13086L21.4131 15.6016C21.4615 15.9362 21.4322 16.3475 21.2842 16.7363C22.2631 16.9283 23 17.7899 23 18.8252C23 19.971 22.0972 20.903 20.9629 20.9512V22.2324C20.9629 22.6519 20.6149 22.9999 20.1953 23C19.7756 23 19.4277 22.652 19.4277 22.2324V20.9531H4.58301V22.2324C4.58301 22.6519 4.23504 22.9999 3.81543 23C3.3957 23 3.04785 22.652 3.04785 22.2324V20.9521C1.90868 20.9092 1.00002 19.9745 1 18.8252C1 17.8815 1.61218 17.0822 2.46191 16.8027C2.39755 16.5934 2.36133 16.3573 2.36133 16.0928V3.12793C2.36153 2.27863 2.93494 1 4.50098 1H7.23438ZM3.12891 18.2217C2.80168 18.2219 2.53541 18.4874 2.53516 18.8145C2.53516 19.1417 2.80152 19.408 3.12891 19.4082H20.8711C21.1985 19.408 21.4648 19.1417 21.4648 18.8145C21.4646 18.4874 21.1983 18.2219 20.8711 18.2217H18.1582C18.0912 18.2276 18.02 18.2314 17.9531 18.2314V18.2422C17.8531 18.2422 17.749 18.2356 17.6436 18.2217H3.12891ZM14.8203 16.0928C14.8203 16.2803 14.7936 16.4881 14.7354 16.6973H15.8975C15.8753 16.6097 15.8574 16.5174 15.8438 16.4209L14.8203 9.37695V16.0928ZM17.5332 3.84473L16.1924 4.03906C16.0491 4.05953 15.6188 4.12099 15.6904 4.72461L17.3594 16.1953C17.3767 16.3163 17.4301 16.642 17.8037 16.6973H18.0449L19.3857 16.502C19.5291 16.4815 19.9594 16.4201 19.8877 15.8164L18.2188 4.3457C18.1982 4.20201 18.1365 3.77322 17.5332 3.84473ZM4.49023 2.53516C4.34644 2.53516 3.90671 2.53559 3.89648 3.13867V16.0928C3.89648 16.236 3.89697 16.6763 4.50098 16.6865H7.22363C7.36694 16.6865 7.80704 16.6865 7.81738 16.083V3.12793C7.81738 2.98422 7.81719 2.5454 7.21387 2.53516H4.49023ZM9.95703 2.53516C9.81323 2.53516 9.37351 2.53559 9.36328 3.13867V16.0928C9.36328 16.236 9.36377 16.6763 9.96777 16.6865H12.6904C12.8337 16.6865 13.2738 16.6865 13.2842 16.083V3.12793C13.2842 2.98422 13.284 2.5454 12.6807 2.53516H9.95703Z" fill="#3C3B44"/>
</g>
<defs>
<clipPath id="clip0_4704_418">
<rect width="24" height="24" fill="white"/>
</clipPath>
</defs>
</svg>

<svg xmlns="http://www.w3.org/2000/svg" width="24" height="24" fill="none" viewBox="0 0 24 24"><g clip-path="url(#a)"><path fill="currentColor" d="M7.234 1c.42 0 .935.135 1.354.453C8.917 1.181 9.365 1 9.957 1h2.733c.844 0 2.08.542 2.125 2.041.3-.271.693-.449 1.162-.517l1.351-.194c.082-.01.543-.061 1.055.103.757.255 1.238.859 1.361 1.698l1.67 11.47c.048.336.016.747-.133 1.136a2.126 2.126 0 0 1-.318 4.211v1.284c0 .42-.348.768-.768.768a.773.773 0 0 1-.767-.768v-1.279H4.583v1.28a.773.773 0 0 1-.768.767.773.773 0 0 1-.767-.768v-1.284a2.127 2.127 0 0 1-.583-4.145 2.4 2.4 0 0 1-.104-.71V3.128c0-.85.574-2.128 2.14-2.128zM3.13 18.222a.594.594 0 0 0 0 1.186h17.74a.594.594 0 0 0 0-1.187h-2.72c-.065.006-.134.01-.198.01v.011a2 2 0 0 1-.302-.02zm11.691-2.13c0 .189-.028.396-.087.605H15.9a3 3 0 0 1-.055-.276L14.82 9.38zm2.713-12.247-1.34.194c-.144.02-.574.082-.503.686l1.67 11.47c.017.122.071.451.454.502h.23l1.342-.195c.143-.02.573-.082.502-.686l-1.67-11.47c-.02-.144-.081-.573-.685-.501M4.49 2.535c-.144 0-.583 0-.594.604v12.954c0 .143.001.583.605.593h2.723c.143 0 .583 0 .593-.603V3.128c0-.144 0-.583-.603-.593zm5.467 0c-.144 0-.583 0-.594.604v12.954c0 .143 0 .583.605.593h2.722c.144 0 .584 0 .594-.603V3.128c0-.144 0-.583-.603-.593z"/></g><defs><clipPath id="a"><path fill="currentColor" d="M0 0h24v24H0z"/></clipPath></defs></svg>
